X:105
T:Le Galant
C:Richard Forest
Z:robin.beech@mcgill.ca
R:jig
M:6/8
L:1/8
K:C
gg |: g2f e2d | c3 cBc | d3 d^cd | ede cef |
g2f e2d | c3 cBc | d2g GAB |1 c3 cgg :|2 c3 B3 |:
AEE CEE | AGA cBA | B3 BAB | efe dcB |
c2A d2B | e2c fed | cBA ^GAB | A3 AcB :|
